X:288
T:The Linnet's Chorus
R:waltz
M:3/4
L:1/8
K:Dmaj
|:FE|D3F AB|A3d fe|ed d2 AF|E3D FE|
D3F AB|A3B d2|Bd AB FB|A3B FE|
D3F AB|A3d fe|ed d2 AF|E3F D2|
fe dc dB|A2 AB FD|E3D FE|1 D4:|2 D3-D2||
|:f|fe de fg|ab af ed|ed B/c/d AF|E3D FE|
D2 DE FG|Ad dc de|fa ab af|e3f d2|
fe de fg|ab af ed|ed B/c/d AF|E3D FE|
D2 DE FG|Ad dc df|e3A Bc|1 d3-d2:|2 d4||

